X:1
T: The Physician
C:Bruce Shawyer
R:Strathspey
Q:128
K:F
M:4/4
L:1/16
|:Ac3 c4 Ac3 c4|d3e f2d2 cA3 A4|d3e f2d2 cA3 A4|B3A G2F2 GC3 C4|
Ac3 c4 Ac3 c4|d3e f2d2 cA3 A4|d3e f2d2 cA3 A4|B3G c2B2 AF3 F4|
cf3 f4 df3 f4|d3e f2g2 ec3 c4|cf3 f4 fa3 a4|b3a g2f2 e2d2 c2B2|
cf3 f4 df3 f4|d3e f2g2 e2d2 c2B2|Ac3 c4 df3 f4|f3e d2e2 f8:|
